X:1
T:Gli occhi lucenti
T:Madalena Casulana
T:Source : Secondo libro de madrigali a quattro voci---Venetia---G.Scotto---1570. Editor : André Vierendeels (03/09/17).
T:Gli occhi lucenti
T:Secunda parte
T:©
T:©
T:©
T:©
T:©
C:Madalena Casulana
Z:©
%%score [ 1 2 3 4 ]
L:1/8
Q:1/4=120
M:4/4
K:C
V:1 treble nm="Soprano" snm="S"
V:2 treble nm="Alto 1" snm="A 1"
V:3 treble nm="Alto 2" snm="A 2"
V:4 treble-8 nm="Tenor" snm="T"
V:1
 z8 | z8 | c4 d2 f2 | e2 d2 c4 | B4 z2 e2- | ee d2 g4 | c4 e4 | d4 z2 c2- | c2 c2 A4 | A2 G2 A4 | %10
w: ||Gli'oc- chi lu-|cent' e bel-|li, e|_ ra- no l'esc'|e gli'a-|mi, on-|* de pe-|sci mo- rian|
 d2 ec f4 | e2 e3 e d2 | d4 B4 | c2 c3 cdd | e4 e2 e2 | d2 g2 f2 d2 | e4 E2 E2 | E8- | E4 E4 | %19
w: liet' e con- ten-|ti, liet' e con-|ten- ti,|cor- rean leg- gia- dr'e|snel- li I|dei del fium' in-|ten- ti, al|ar-|* mo-|
 E4 z2 ^G2 | B8- | B4 B4 | ^F4 z2 G2 | G6 c2 | c2 A2 c4 | c4 z2 ^c2 | ^c2 c3 c c2 |"^b" d4 B2 c2 | %28
w: nia, al|ar-|* mo-|nia ch'u-|dian tra|ver- di ra-|mi, u-|sci The- ti dal'|ac- que, tant'|
"^-natural" A2 c2 cBcd | c2 d2 e4 | A4 z2 A2 | A3 A _B2 A2- | A2 G2 A2 c2 | c4 z2 f2 | e2 e2 d4 | %35
w: il can- tar _ _ _|_ li piac-|que, e|men- tre ch'el- la|_ mi- ra, di-|cea, di-|cea fe- li-|
 d2 c4 c2 | c4 z2 _B2 | A8 | A8 |] %39
w: ce chi per|lei so-|spi-|ra.|
V:2
 z4 G4 | A2 c2 B4 | A2 G4 F2 | G4 z2 G2- | G2 G2 B2 c2- | c2 _B2 B4 | A2 F2 c2 c2- | %7
w: Gli'oc-|chi lu- cent'|e bel- *|li, e|_ ra- no l'esc'|_ e gli'a-|mi, l'esc' e gli'a-|
 cB/A/ B2 c2 A2- | A2 G2 F4 | E2 D2 E4 | B2 BA c4 | c2 c3 c B2 | A4 D4 |"^-natural" F2 A3 ABB | %14
w: * * * * mi, on-|* de pe-|sci mo- rian|liet' e con- ten-|ti, liett e con-|ten- ti,|cor- rean leg- gia- dr'e|
 c4 c2 c2 | A2 G2 A2 G2 | G4 G,2 A,2 | C8- | C4 C4 | B,4 z2 E2 | ^G8- | G4 ^G4 | B4 z2 B2 | c6 G2 | %24
w: snel- li I|dei del fium' in-|ten- ti, al|ar-|* mo-|nia, al|ar-|* mo-|nia ch'u-|dian tra|
 G2 F2 G4 | A4 z2 A2 | A2 A3 A A2 | _B4 G2 A2 |"^-natural" c2 A2 AGAB | A2 A2 G4 | ^F4 z2 D2 | %31
w: ver- di ra-|mi, u-|sci The- ti dal'|ac- que, tant'|il can- tar _ _ _|_ li piac-|que, e|
"^-natural" ^C2 D2 D2 F2 | F2 ED E2 A2 | G4 z2 c2 | c2 c2 A4 | _B2 A4 A2 | G8 | z2 F2 E4 | ^F8 |] %39
w: men- tre ch'el- la|mi- * * ra, di-|cea, di-|cea fe- li-|ce chi per|lei|so- spi-|ra.|
V:3
 D4 E2 G2 | F2 E2 D4 | CF E2 D2 C2- | C2 B,2 z2 E2- | EE D2 G4 | C2 F3 E/D/ E2 | F2 A4 E2 | %7
w: Gli'oc- chi lu-|cent' e bel-|li, lu- cent' e bel-|* li, e|_ ra- no l'esc'|e gli'a- * * *|mi, l'esc' e|
 G4 C2 F2- | F2 E2 D4 | A,2 D2 C4 | G2 GE A4 | G2 G3 G G2 | ^F4 G4 | A2 F3 EGG | G4 G2 G2 | %15
w: gli'a- mi, on-|* de pe-|sci mo- rian|liet' e con- ten-|ti, liet' e con-|ten- ti,|cor- rean leg- gia- dr'e|snel- li I|
 F2 C2 C2 B,2 | C4 C2 C2 | A,8- | A,4 A,4 | ^G,4 z2 B,2 | E8- | E4 E4 | ^D4 z2 E2 | E4 E2 E2- | %24
w: dei del fium' in-|ten- ti, al|ar-|* mo-|nia, al|ar-|* mo-|nia ch'u-|dian tra ver-|
 EE F3 E/D/ E2 | F4 z2 E2 | E2 E3 E E2 | G4 D2 F2 | F2 F2 F4 | F2 D4 ^C2 |"^-natural" D4 z2 F2 | %31
w: * di ra- * * *|mi, u-|sci The- ti dal'|ac- que, tant'|il can- tar|li piac- *|que, e|
"^-natural" E2 ^F2 G2 C2 | D4 C2 F2 | E4 z2 A2 | G2 A2 F4 | F2 F4 F2 | E4 D2 E2- | ED D4 ^C2 | %38
w: men- tre ch'el- la|mi- ra, di-|cea, di-|cea fe- li-|ce chi per|lei so- spi-||
 D8 |] %39
w: ra.|
V:4
 z8 | z4 G4 | A2 c2 B2 A2 | G4 C4 | z2 G3 G c2 | A2 _B2 G4 | F4 z4 | z4 z2 F2- | F2 c2 d4 | %9
w: |Gli'oc-|chi lu- cent' e|bel- li,|e ra- no|l'esc' e gli'a-|mi,|on-|* de pe-|
 c2 B2 A4 | G2 EA F4 | c2 C3 C G2 | D4 G4 |"^-natural" F2 F3 AGG | c4 c2 C2 | D2 E2 F2 G2 | %16
w: sci mo- rian|liet' e con- ten-|ti, liet' e con|ten- ti,|cor- rean leg- gia- dr'e|snel- li I|dei del fium' in-|
 C4 C2 A,2 |"^-natural" A,8- | A,4 A,4 | E4 z2 E2 | E8- | E4 E4 | B4 z2 E2 | C6 C2 | c2 d2 c4 | %25
w: ten- ti, al|ar-|* mo-|nia, al|ar-|* mo-|nia ch'u-|dian tra|ver- di ra-|
 F4 z2 A2 | A2 A3 A A2 | G4 G2 F2 | F2 F2 F4- | F2 F2 E4 | D4 z2 D2 | A2 D2 G2 F2 | %32
w: mi, u-|sci The- ti dal'|ac- que, tant'|il can- tar|_ li piac-|que, e|men- tre ch'el- la|
"^-natural""^b" B4 A2 F2 | c4 z2 F2 | c2 A2 d4 | _B2 F4 A2 | c4 z2 G2 | A8 | D8 |] %39
w: mi- ra, di-|cea, di-|cea fe- li-|ce chi per|lei so-|spi-|ra.|

